X: 36
M: none
L: 1/8
K: Dm
d3e f2ef | gfed f4 | c2A2 c4 | d3e f2ef |\
gfed f4 | f4 fga2 | f3e d4 |
f3g a2b2 | g3f g2a2 | c3d cdcA | GFGA c2fg |\
a4 g2f2 | f4 c2A2 | G3F G2A2 | f3e d2 |]


